src/assets/images/logo.svg

<svg width="111" height="39" viewBox="0 0 111 39" fill="none" xmlns="http://www.w3.org/2000/svg">
<g clip-path="url(#clip0_118_10794)">
<path d="M19.539 0H9.76953V9.66558H19.539V0Z" fill="white"/>
<path d="M29.3085 0H19.5391V9.66558H29.3085V0Z" fill="white"/>
<path d="M9.76947 9.66406H0V19.3296H9.76947V9.66406Z" fill="white"/>
<path d="M9.76947 0H0V9.66558H9.76947V0Z" fill="white"/>
<path d="M19.539 19.332H9.76953V28.9976H19.539V19.332Z" fill="white"/>
<path d="M9.76947 28.9961H0V38.6617H9.76947V28.9961Z" fill="white"/>
<path d="M45.4766 15.5239V4.25781H53.092V5.35093H46.684V9.63934H52.837V10.7499H46.684V15.5254H45.4766V15.5239Z" fill="white"/>
<path d="M54.3828 12.2132V7.21875H55.6064V12.045C55.6064 13.8442 56.3376 14.6343 57.9861 14.6343C59.5335 14.6343 60.5871 13.8268 60.5871 11.8768V7.21875H61.7945V15.5259H60.6897V13.6934H60.6384C60.2984 14.6517 59.3459 15.6941 57.5963 15.6941C55.4042 15.6941 54.3843 14.1979 54.3843 12.2132H54.3828Z" fill="white"/>
<path d="M64.2744 13.1739V8.2635H62.8633V7.22112H64.2905L64.5792 5.10156H65.4965V7.22112H68.1488V8.2635H65.4965V13.242C65.4965 14.2177 65.9552 14.4366 67.0439 14.4366H68.1488V15.4123C67.8601 15.463 67.3326 15.5471 66.7215 15.5471C65.1741 15.5471 64.2744 14.9411 64.2744 13.1753V13.1739Z" fill="white"/>
<path d="M69.3203 12.2132V7.21875H70.5439V12.045C70.5439 13.8442 71.2751 14.6343 72.9236 14.6343C74.471 14.6343 75.5246 13.8268 75.5246 11.8768V7.21875H76.732V15.5259H75.6272V13.6934H75.5759C75.2359 14.6517 74.2834 15.6941 72.5338 15.6941C70.3417 15.6941 69.3218 14.1979 69.3218 12.2132H69.3203Z" fill="white"/>
<path d="M78.6562 15.5222V7.11356H79.7611V8.50969H79.8461C80.1187 7.73551 80.9334 7.04688 82.1745 7.04688C83.9081 7.04688 84.5719 8.27483 84.5719 9.70429V10.1755H83.3483V9.88986C83.3483 8.59522 82.9409 8.09071 81.7335 8.09071C80.4249 8.09071 79.8813 8.67931 79.8813 10.0247V15.5236H78.6577L78.6562 15.5222Z" fill="white"/>
<path d="M85.4688 11.3686C85.4688 8.84603 86.981 7.04688 89.3783 7.04688C91.4005 7.04688 93.0666 8.25743 93.0666 10.7133C93.0666 11.1004 93.0329 11.4701 92.9816 11.705H86.6249C86.6762 13.5375 87.4074 14.6146 89.412 14.6146C91.1118 14.6146 91.7917 13.8579 91.7917 12.8488V12.7473H92.9992V12.8648C92.9992 14.4624 91.5367 15.6904 89.3959 15.6904C86.8125 15.6904 85.4688 13.8912 85.4688 11.3686ZM86.6249 10.8308H91.9104C91.9778 8.86343 90.9931 8.08926 89.3431 8.08926C87.4733 8.08926 86.726 9.14903 86.6234 10.8308H86.6249Z" fill="white"/>
<path d="M97.5195 11.3686C97.5195 8.84603 99.1343 7.04688 101.599 7.04688C104.064 7.04688 105.611 8.84603 105.611 11.3686C105.611 13.8912 104.048 15.6904 101.599 15.6904C99.1505 15.6904 97.5195 13.8912 97.5195 11.3686ZM104.421 11.3686C104.421 9.29981 103.623 8.14 101.599 8.14C99.5754 8.14 98.727 9.29981 98.727 11.3686C98.727 13.4374 99.5432 14.6146 101.599 14.6146C103.655 14.6146 104.421 13.4374 104.421 11.3686Z" fill="white"/>
<path d="M107.429 15.5239V8.25916H106.188V7.21678H107.429V6.89783C107.429 5.18276 108.397 4.25781 110.251 4.25781H110.998V5.24945H110.03C109.061 5.24945 108.619 5.65249 108.619 6.49335V7.21678H110.998V8.25916H108.636V15.5239H107.429Z" fill="white"/>
<path d="M45.2188 30.2325V29.9802H46.4262V30.1658C46.4262 31.7301 47.2585 32.7058 49.7921 32.7058C51.6795 32.7058 52.5631 32.0838 52.5631 30.7892C52.5631 29.4946 51.9857 29.0567 50.2683 28.687L48.296 28.2492C46.5112 27.8795 45.2876 27.072 45.2876 25.2554C45.2876 23.6245 46.6475 22.2109 49.3496 22.2109C52.3066 22.2109 53.5991 23.9941 53.5991 25.8266V26.0456H52.3916V25.86C52.3916 24.3131 51.5754 23.32 49.332 23.32C47.4446 23.32 46.5097 23.942 46.5097 25.1699C46.5097 26.3979 47.1384 26.8183 48.8045 27.2054L50.7768 27.6592C52.6642 28.0796 53.7852 28.9538 53.7852 30.7196C53.7852 32.4854 52.4429 33.8134 49.7569 33.8134C46.5947 33.8134 45.2188 32.165 45.2188 30.231V30.2325Z" fill="white"/>
<path d="M55.3672 36.5743V25.34H56.4721V26.9551H56.5233C56.897 25.8953 57.9008 25.1719 59.4804 25.1719C61.8426 25.1719 63.1526 26.871 63.1526 29.511C63.1526 32.151 61.9114 33.8168 59.6167 33.8168C58.0019 33.8168 56.9644 32.976 56.5908 32.0684V36.5757H55.3672V36.5743ZM59.2767 32.773C60.9091 32.773 61.929 32.0336 61.929 29.511C61.929 26.9884 60.9267 26.2143 59.2767 26.2143C57.6268 26.2143 56.5908 27.0725 56.5908 28.7876V30.2171C56.5908 31.9162 57.6106 32.773 59.2767 32.773Z" fill="white"/>
<path d="M64.375 29.4936C64.375 26.971 65.9898 25.1719 68.4545 25.1719C70.9192 25.1719 72.4666 26.971 72.4666 29.4936C72.4666 32.0162 70.9031 33.8154 68.4545 33.8154C66.0059 33.8154 64.375 32.0162 64.375 29.4936ZM71.2768 29.4936C71.2768 27.4248 70.4782 26.265 68.4545 26.265C66.4309 26.265 65.5824 27.4248 65.5824 29.4936C65.5824 31.5624 66.3986 32.7396 68.4545 32.7396C70.5104 32.7396 71.2768 31.5624 71.2768 29.4936Z" fill="white"/>
<path d="M73.9453 33.6472V25.2386H75.0502V26.6347H75.1352C75.4077 25.8605 76.2225 25.1719 77.4636 25.1719C79.1971 25.1719 79.8609 26.3998 79.8609 27.8293V28.3005H78.6374V28.0149C78.6374 26.7202 78.23 26.2157 77.0225 26.2157C75.714 26.2157 75.1703 26.8043 75.1703 28.1497V33.6486H73.9468L73.9453 33.6472Z" fill="white"/>
<path d="M81.9346 31.2949V26.3846H80.5234V25.3422H81.9507L82.2394 23.2227H83.1567V25.3422H85.8089V26.3846H83.1567V31.3631C83.1567 32.3388 83.6153 32.5577 84.7041 32.5577H85.8089V33.5334C85.5203 33.5841 84.9927 33.6682 84.3817 33.6682C82.8343 33.6682 81.9346 33.0622 81.9346 31.2964V31.2949Z" fill="white"/>
<path d="M86.6602 30.9216V30.8883H87.85V31.0898C87.85 32.2337 88.3263 32.7889 90.2297 32.7889C91.7933 32.7889 92.2021 32.3511 92.2021 31.5102C92.2021 30.6694 91.6746 30.3664 90.3997 30.1315L89.0062 29.8967C87.6463 29.6444 86.6602 29.0224 86.6602 27.5596C86.6602 26.0968 87.8837 25.1719 89.8722 25.1719C91.8607 25.1719 93.2044 26.1476 93.2044 28.0134V28.0975H92.0321V27.9627C92.0321 26.971 91.6409 26.2143 89.84 26.2143C88.3101 26.2143 87.8339 26.7014 87.8339 27.5422C87.8339 28.3831 88.2588 28.6687 89.5161 28.905L90.9434 29.1747C92.4058 29.4443 93.3744 30.0822 93.3744 31.4624C93.3744 32.9426 92.1508 33.8168 90.2122 33.8168C87.9174 33.8168 86.6602 32.8585 86.6602 30.9245V30.9216Z" fill="white"/>
<path d="M37.966 4.25781H37.2891V34.0737H37.966V4.25781Z" fill="white"/>
</g>
<defs>
<clipPath id="clip0_118_10794">
<rect width="111" height="38.6609" fill="white"/>
</clipPath>
</defs>
</svg>

<svg xmlns="http://www.w3.org/2000/svg" width="111" height="39" fill="none" viewBox="0 0 111 39"><g fill="#fff" clip-path="url(#a)"><path d="M19.539 0h-9.77v9.666h9.77zm9.77 0h-9.77v9.666h9.77z"/><path d="M9.77 9.664H0v9.666h9.77z"/><path d="M9.77 0H0v9.666h9.77zm9.769 19.332h-9.77v9.666h9.77z"/><path d="M9.77 28.996H0v9.666h9.77zm35.707-13.472V4.258h7.615V5.35h-6.408v4.288h6.153v1.11h-6.153v4.776zm8.906-3.311V7.22h1.223v4.826c0 1.8.732 2.59 2.38 2.59 1.547 0 2.601-.808 2.601-2.758V7.219h1.207v8.307H60.69v-1.833h-.052c-.34.959-1.292 2.001-3.042 2.001-2.192 0-3.212-1.496-3.212-3.48zm9.891.961v-4.91h-1.41V7.22h1.426l.29-2.12h.916v2.12h2.653v1.043h-2.653v4.978c0 .976.46 1.195 1.548 1.195h1.105v.975a8 8 0 0 1-1.427.135c-1.548 0-2.448-.606-2.448-2.372m5.046-.961V7.22h1.224v4.826c0 1.8.731 2.59 2.38 2.59 1.547 0 2.6-.808 2.6-2.758V7.219h1.208v8.307h-1.105v-1.833h-.051c-.34.959-1.293 2.001-3.042 2.001-2.192 0-3.212-1.496-3.212-3.48zm9.336 3.309V7.114h1.105V8.51h.085c.273-.774 1.087-1.463 2.328-1.463 1.734 0 2.398 1.228 2.398 2.657v.471h-1.224V9.89c0-1.295-.407-1.8-1.614-1.8-1.31 0-1.853.59-1.853 1.935v5.499h-1.223zm6.813-4.153c0-2.523 1.512-4.322 3.91-4.322 2.021 0 3.688 1.21 3.688 3.666a5 5 0 0 1-.085.992h-6.357c.051 1.832.782 2.91 2.787 2.91 1.7 0 2.38-.757 2.38-1.766v-.102h1.207v.118c0 1.597-1.462 2.825-3.603 2.825-2.584 0-3.927-1.799-3.927-4.321m1.156-.538h5.285c.068-1.968-.917-2.742-2.567-2.742-1.87 0-2.617 1.06-2.72 2.742zm10.895.538c0-2.523 1.614-4.322 4.079-4.322s4.012 1.799 4.012 4.322c0 2.522-1.563 4.321-4.012 4.321s-4.08-1.799-4.08-4.321m6.901 0c0-2.07-.798-3.229-2.822-3.229s-2.872 1.16-2.872 3.229.816 3.246 2.872 3.246 2.822-1.178 2.822-3.246m3.009 4.155V8.259h-1.241V7.217h1.241v-.32c0-1.714.968-2.64 2.822-2.64h.747v.992h-.968c-.969 0-1.411.403-1.411 1.244v.724h2.379v1.042h-2.362v7.265zm-62.21 14.709v-.253h1.207v.186c0 1.564.832 2.54 3.366 2.54 1.887 0 2.771-.622 2.771-1.917s-.577-1.732-2.295-2.102l-1.972-.438c-1.785-.37-3.008-1.177-3.008-2.994 0-1.63 1.36-3.044 4.062-3.044 2.957 0 4.25 1.783 4.25 3.616v.219h-1.208v-.186c0-1.547-.817-2.54-3.06-2.54-1.887 0-2.822.622-2.822 1.85s.628 1.648 2.294 2.035l1.973.454c1.887.42 3.008 1.295 3.008 3.06s-1.342 3.094-4.028 3.094c-3.162 0-4.538-1.648-4.538-3.582zm10.148 6.341V25.34h1.105v1.615h.051c.374-1.06 1.378-1.783 2.957-1.783 2.363 0 3.673 1.699 3.673 4.339s-1.242 4.306-3.536 4.306c-1.615 0-2.653-.841-3.026-1.749v4.508h-1.224zm3.91-3.801c1.632 0 2.652-.74 2.652-3.262s-1.002-3.297-2.652-3.297-2.686.859-2.686 2.574v1.43c0 1.698 1.02 2.555 2.686 2.555m5.098-3.279c0-2.523 1.615-4.322 4.08-4.322s4.012 1.799 4.012 4.322c0 2.522-1.564 4.321-4.013 4.321s-4.079-1.799-4.079-4.321m6.902 0c0-2.07-.799-3.229-2.823-3.229s-2.872 1.16-2.872 3.229.817 3.246 2.873 3.246 2.822-1.178 2.822-3.246m2.668 4.153V25.24h1.105v1.396h.085c.273-.775 1.087-1.463 2.329-1.463 1.733 0 2.397 1.228 2.397 2.657v.471h-1.224v-.285c0-1.295-.407-1.8-1.615-1.8-1.308 0-1.852.59-1.852 1.935v5.499h-1.223zm7.99-2.352v-4.91h-1.412v-1.043h1.428l.288-2.12h.918v2.12h2.652v1.043h-2.652v4.978c0 .976.458 1.195 1.547 1.195h1.105v.975a8 8 0 0 1-1.427.135c-1.548 0-2.447-.606-2.447-2.372zm4.725-.373v-.034h1.19v.202c0 1.144.476 1.699 2.38 1.699 1.563 0 1.972-.438 1.972-1.279 0-.84-.527-1.144-1.802-1.379l-1.394-.234c-1.36-.253-2.346-.875-2.346-2.337s1.224-2.388 3.212-2.388 3.332.976 3.332 2.841v.084h-1.172v-.134c0-.992-.391-1.749-2.192-1.749-1.53 0-2.006.487-2.006 1.328s.425 1.127 1.682 1.363l1.427.27c1.463.27 2.431.907 2.431 2.287 0 1.48-1.223 2.355-3.162 2.355-2.295 0-3.552-.959-3.552-2.893zM37.966 4.258h-.677v29.816h.677z"/></g><defs><clipPath id="a"><path fill="#fff" d="M0 0h111v38.661H0z"/></clipPath></defs></svg>
